svg/fluentui-system-icons/ic_fluent_filmstrip_24_filled.svg

<svg width="24" height="24" viewBox="0 0 24 24" fill="none" xmlns="http://www.w3.org/2000/svg">
<path d="M2 7.25C2 5.45507 3.45507 4 5.25 4H18.75C20.5449 4 22 5.45507 22 7.25V16.75C22 18.5449 20.5449 20 18.75 20H5.25C3.45508 20 2 18.5449 2 16.75V7.25ZM18.5 7.75V8.25C18.5 8.66421 18.8358 9 19.25 9C19.6642 9 20 8.66421 20 8.25V7.75C20 7.33579 19.6642 7 19.25 7C18.8358 7 18.5 7.33579 18.5 7.75ZM19.25 15C18.8358 15 18.5 15.3358 18.5 15.75V16.25C18.5 16.6642 18.8358 17 19.25 17C19.6642 17 20 16.6642 20 16.25V15.75C20 15.3358 19.6642 15 19.25 15ZM18.5 11.75V12.25C18.5 12.6642 18.8358 13 19.25 13C19.6642 13 20 12.6642 20 12.25V11.75C20 11.3358 19.6642 11 19.25 11C18.8358 11 18.5 11.3358 18.5 11.75ZM4.75 7C4.33579 7 4 7.33579 4 7.75V8.25C4 8.66421 4.33579 9 4.75 9C5.16421 9 5.5 8.66421 5.5 8.25V7.75C5.5 7.33579 5.16421 7 4.75 7ZM4 15.75V16.25C4 16.6642 4.33579 17 4.75 17C5.16421 17 5.5 16.6642 5.5 16.25V15.75C5.5 15.3358 5.16421 15 4.75 15C4.33579 15 4 15.3358 4 15.75ZM4.75 11C4.33579 11 4 11.3358 4 11.75V12.25C4 12.6642 4.33579 13 4.75 13C5.16421 13 5.5 12.6642 5.5 12.25V11.75C5.5 11.3358 5.16421 11 4.75 11Z" fill="#212121"/>
</svg>

<svg xmlns="http://www.w3.org/2000/svg" width="24" height="24"><path d="M2 7.25A3.25 3.25 0 0 1 5.25 4h13.5A3.25 3.25 0 0 1 22 7.25v9.5A3.25 3.25 0 0 1 18.75 20H5.25A3.25 3.25 0 0 1 2 16.75v-9.5Zm16.5.5v.5a.75.75 0 0 0 1.5 0v-.5a.75.75 0 0 0-1.5 0Zm.75 7.25a.75.75 0 0 0-.75.75v.5a.75.75 0 0 0 1.5 0v-.5a.75.75 0 0 0-.75-.75Zm-.75-3.25v.5a.75.75 0 0 0 1.5 0v-.5a.75.75 0 0 0-1.5 0ZM4.75 7a.75.75 0 0 0-.75.75v.5a.75.75 0 0 0 1.5 0v-.5A.75.75 0 0 0 4.75 7ZM4 15.75v.5a.75.75 0 0 0 1.5 0v-.5a.75.75 0 0 0-1.5 0ZM4.75 11a.75.75 0 0 0-.75.75v.5a.75.75 0 0 0 1.5 0v-.5a.75.75 0 0 0-.75-.75Z"/></svg>
